X:1
T:Malva Rosura
T:Malva Rosura
T:Canción Tarasca
T:Arr. Carlos Jiménez Mabarak
C:Arr. Carlos Jimémez Mabarak
%%score [ 1 2 3 4 ]
L:1/8
Q:1/4=52
M:2/4
K:Bb
V:1 treble nm="S"
V:2 treble nm="A"
V:3 treble-8 nm="T"
V:4 bass nm="B"
V:1
!mf! z F FF | B d2 B/B/ | ed Bd | !breath!c4 | (3ccc (3FFF | B2 !breath!d2 | BB Ac | B2 z B |: %8
w: Mal- va Ro-|su- ra p- ti-|ro- sa de Cas-|tí;|pren- da Ksi- ni- si- ma|juash- ka|sha- no jua- rash-|ká. Jui-|
 e/ e/ e/ e/ (3e c e | d2 !breath!B F | d/ d/ d/ d/ (3d B d | d2 !breath!A F | c F F F | B2 d2 | %14
w: a, jui- a Ma- ria To- ma-|si- ta, Jui-|a, jui- a Ma- ria To- ma-|si- ta, y|sha- mu va- ti|shan- dai|
 c B A c |1 B2 z B :|2 B4 |] %17
w: am- ba ki- tum-|bi. Jui-|bi.|
V:2
!mf! z D DC | D F2 F/F/ | GF GG | !breath!E4 | (3AAG (3EDE | F2 !breath!F2 | FF EE | D2 z F |: %8
w: Mal- va Ro-|su- ra pi- ti-|ro- sa de Cas-|tí:|pren- da Ksi- ni- si- ma|juash- ka|sha- no jua- rash-|ká. Jui-|
 G/ B/ A/ G/ (3A G c | B2 !breath!F F | =E/ F/ E/ F/ (3G E G | A2 !breath!F F | F C D C | DE E2 | %14
w: a, jui- a Ma- ria To- ma-|si- ta, Jui-|a, jui- a Ma- ria To- ma-|si- ta, y|sha- mu va- ti|shan- * dai|
 F F E E |1 D2 z F :|2 D4 |] %17
w: am- ba ki- tum-|bi. Jui-|bi.|
V:3
!mf! z B BA | F F2 B/B/ | BB (d/c/) B | !breath!A4 | (3eee (3cdc | d2 !breath!B2 | ed cA | %7
w: Ma- va Ro-|su- ra pi- ti-|ro- sa de _ Cas-|tí:|pren- da Ksi- ni- si ma|juash- ka|sha- no jua- rash-|
 B2 z B |: B/ d/ c/ B/ (3c e f | f2 !breath!d A | B/ c/ B/ A/ (3B c B | c2 !breath!c A | A A B A | %13
w: ká. Jui-|a, jui- a Ma- ria To- ma-|si- ta, Jui-|a, jui- a Ma- ria To- ma-|si- ta, y|sha- mu va- ti|
 (FG/A/) B2 | e d c A |1 B2 z B :|2 B4 |] %17
w: shan- * * dai|am- ba ki- tum-|bi. Jui-|bi.|
V:4
!mf! z D, D,C, | B,, B,,2 D,/D,/ | E,F, G,C, | !breath!F,4 | (3CCB, (3A,A,A, | B,2 !breath!B,,2 | %6
w: Mal- va Ro-|su- ra pi- ti-|ro- sa de Cas-|tí;|pren- da Ksi- ni- si- ma|juash- ka|
 C,C, F,F, | B,,2 z D, |: E,/ E,/ F,/ G,/ (3F, F, A, | B,2 !breath!B, A, | %10
w: sha- no jua- rash-|ká. Jui-|a, jui- a Ma- ria To- ma-|si- ta, Jui-|
 G,/ A,/ G,/ F,/ (3=E, G, E, | F,2 !breath!F, =E, | _E, E, D, C, | B,,2 B,,2 | C, C, F, F, |1 %15
w: a, jui- a Ma- ria To- ma-|si- ta, y|sha- mu va- ti|shan- dai|am- ba ki- tum-|
 B,,2 z D, :|2 B,,4 |] %17
w: bi. Jui-|bi.|

